svg/color/zeta.svg

<svg width="64" height="65" viewBox="0 0 64 65" fill="none" xmlns="http://www.w3.org/2000/svg">
<rect y="0.303711" width="64" height="64" rx="32" fill="#005741"/>
<rect x="0.5" y="0.803711" width="63" height="63" rx="31.5" stroke="#070B14" stroke-opacity="0.15"/>
<path d="M40.3087 39.3769V43.6987H22.4799C22.7259 40.8543 23.6437 38.8531 26.8177 36.0389L40.3087 24.5296V34.6292H45.1651V16.0482H17.5505V25.3102H22.4069V20.9047H37.0778L23.6526 32.3622L23.6205 32.3925C17.9942 37.3739 17.5469 41.3944 17.5469 46.1315V48.5588H45.1669V39.3805H40.3105L40.3087 39.3769Z" fill="white"/>
</svg>

<svg xmlns="http://www.w3.org/2000/svg" width="64" height="65" fill="none" viewBox="0 0 64 65"><rect width="64" height="64" y=".304" fill="#005741" rx="32"/><rect width="63" height="63" x=".5" y=".804" stroke="#070B14" stroke-opacity=".15" rx="31.5"/><path fill="#fff" d="M40.309 39.377v4.322h-17.83c.247-2.845 1.165-4.846 4.339-7.66l13.49-11.51v10.1h4.857V16.05H17.551v9.261h4.856v-4.405h14.67L23.654 32.362l-.032.03c-5.627 4.982-6.074 9.002-6.074 13.74v2.427h27.62V39.38H40.31z"/></svg>
